public/flags/MO.svg

<svg fill="none" height="53" viewBox="0 0 61 53" width="61" xmlns="http://www.w3.org/2000/svg" xmlns:xlink="http://www.w3.org/1999/xlink"><mask id="a" height="43" maskUnits="userSpaceOnUse" width="59" x="1" y="3"><rect fill="#fff" height="42.5" rx="4.24286" width="59" x="1" y="3"/></mask><rect fill="#fff" height="42.5" rx="4.24286" width="59" x="1" y="3"/><g clip-rule="evenodd" fill-rule="evenodd" mask="url(#a)"><path d="m1 45.5h59v-42.5h-59z" fill="#079d7b"/><path d="m34.4727 21.4166c0 .6202-.0447 1.2217-.1287 1.795.2155-.0668.4349-.1305.658-.1907 3.747-1.0125 7.0913-.6785 7.4698.7461.3421 1.2875-1.8552 3.025-5.0471 4.095-.5639-1.6865-3.4493-2.1954-6.9239-2.1954-3.4786 0-6.3665.51-6.9259 2.2011-3.1488-1.072-5.3068-2.7914-4.9676-4.0681.3785-1.4246 3.7229-1.7587 7.4699-.7462.1967.0532.3906.109.5814.1672-.0848-.576-.13-1.1806-.13-1.804 0-3.912 1.7783-7.0833 3.9721-7.0833 2.1937 0 3.972 3.1713 3.972 7.0833zm-10.9957 7.0833h2.4578c-.3893-.077-.7865-.1691-1.1885-.2768.4521.0135 1.0096.0525 1.6476.097 1.155.0807 2.5736.1798 4.1069.1798s2.9519-.0991 4.1069-.1798c.6137-.0428 1.1531-.0805 1.5956-.0953-.4159.1082-.8264.1998-1.2279.2751h2.5492 4.2142c-.3332 1.0088-.7817 1.9592-1.3286 2.8333h-19.819c-.5469-.8741-.9954-1.8245-1.3286-2.8333zm7.0237 8.5c2.8378 0 5.4439-1.0613 7.4904-2.8333h-14.9808c2.0466 1.772 4.6527 2.8333 7.4904 2.8333z" fill="#fff"/><path d="m30.5002 11.5c.7758 0 1.4047-.6343 1.4047-1.4167 0-.78241-.6289-1.41667-1.4047-1.41667-.7759 0-1.4048.63426-1.4048 1.41667 0 .7824.6289 1.4167 1.4048 1.4167zm-11.238 7.0833c.7758 0 1.4047-.6342 1.4047-1.4166s-.6289-1.4167-1.4047-1.4167-1.4048.6343-1.4048 1.4167.629 1.4166 1.4048 1.4166zm23.881-1.4166c0 .7824-.629 1.4166-1.4048 1.4166s-1.4048-.6342-1.4048-1.4166.629-1.4167 1.4048-1.4167 1.4048.6343 1.4048 1.4167zm-5.6192-2.8334c.7759 0 1.4048-.6343 1.4048-1.4167s-.6289-1.4167-1.4048-1.4167c-.7758 0-1.4047.6343-1.4047 1.4167s.6289 1.4167 1.4047 1.4167zm-12.6427-1.4167c0 .7824-.6289 1.4167-1.4047 1.4167-.7759 0-1.4048-.6343-1.4048-1.4167s.6289-1.4167 1.4048-1.4167c.7758 0 1.4047.6343 1.4047 1.4167z" fill="#fcd117"/></g></svg>

<svg width="61" height="53" viewBox="0 0 61 53" fill="none" xmlns="http://www.w3.org/2000/svg">
<rect x="1" y="3" width="59" height="42.5" rx="4.24286" fill="white"/>
<mask id="mask0" mask-type="alpha" maskUnits="userSpaceOnUse" x="1" y="3" width="59" height="43">
<rect x="1" y="3" width="59" height="42.5" rx="4.24286" fill="white"/>
</mask>
<g mask="url(#mask0)">
<path fill-rule="evenodd" clip-rule="evenodd" d="M1 45.5H60V3H1V45.5Z" fill="#079D7B"/>
<path fill-rule="evenodd" clip-rule="evenodd" d="M34.4727 21.4166C34.4727 22.0368 34.428 22.6383 34.344 23.2116C34.5595 23.1448 34.7789 23.0811 35.002 23.0209C38.749 22.0084 42.0933 22.3424 42.4718 23.767C42.8139 25.0545 40.6166 26.792 37.4247 27.862C36.8608 26.1755 33.9754 25.6666 30.5008 25.6666C27.0222 25.6666 24.1343 26.1766 23.5749 27.8677C20.4261 26.7957 18.2681 25.0763 18.6073 23.7996C18.9858 22.375 22.3302 22.0409 26.0772 23.0534C26.2739 23.1066 26.4678 23.1624 26.6586 23.2206C26.5738 22.6446 26.5286 22.04 26.5286 21.4166C26.5286 17.5046 28.3069 14.3333 30.5007 14.3333C32.6944 14.3333 34.4727 17.5046 34.4727 21.4166ZM23.477 28.4999L25.9348 28.4999C25.5455 28.4229 25.1483 28.3308 24.7463 28.2231C25.1984 28.2366 25.7559 28.2756 26.3939 28.3201C27.5489 28.4008 28.9675 28.4999 30.5008 28.4999C32.0341 28.4999 33.4527 28.4008 34.6077 28.3201C35.2214 28.2773 35.7608 28.2396 36.2033 28.2248C35.7874 28.333 35.3769 28.4246 34.9754 28.4999L37.5246 28.4999L41.7388 28.4999C41.4056 29.5087 40.9571 30.4591 40.4102 31.3332H20.5912C20.0443 30.4591 19.5958 29.5087 19.2626 28.4999L23.477 28.4999ZM30.5007 36.9999C33.3385 36.9999 35.9446 35.9386 37.9911 34.1666H23.0103C25.0569 35.9386 27.663 36.9999 30.5007 36.9999Z" fill="white"/>
<path fill-rule="evenodd" clip-rule="evenodd" d="M30.5002 11.5C31.276 11.5 31.9049 10.8657 31.9049 10.0833C31.9049 9.30089 31.276 8.66663 30.5002 8.66663C29.7243 8.66663 29.0954 9.30089 29.0954 10.0833C29.0954 10.8657 29.7243 11.5 30.5002 11.5ZM19.2622 18.5833C20.038 18.5833 20.6669 17.9491 20.6669 17.1667C20.6669 16.3843 20.038 15.75 19.2622 15.75C18.4864 15.75 17.8574 16.3843 17.8574 17.1667C17.8574 17.9491 18.4864 18.5833 19.2622 18.5833ZM43.1432 17.1667C43.1432 17.9491 42.5142 18.5833 41.7384 18.5833C40.9626 18.5833 40.3336 17.9491 40.3336 17.1667C40.3336 16.3843 40.9626 15.75 41.7384 15.75C42.5142 15.75 43.1432 16.3843 43.1432 17.1667ZM37.524 14.3333C38.2999 14.3333 38.9288 13.699 38.9288 12.9166C38.9288 12.1342 38.2999 11.4999 37.524 11.4999C36.7482 11.4999 36.1193 12.1342 36.1193 12.9166C36.1193 13.699 36.7482 14.3333 37.524 14.3333ZM24.8813 12.9166C24.8813 13.699 24.2524 14.3333 23.4766 14.3333C22.7007 14.3333 22.0718 13.699 22.0718 12.9166C22.0718 12.1342 22.7007 11.4999 23.4766 11.4999C24.2524 11.4999 24.8813 12.1342 24.8813 12.9166Z" fill="#FCD117"/>
</g>
</svg>
